X: 2
T: The Abbey
R: reel
M: 4/4
L: 1/8
K: Ador
~A3B A2GE|A2GA BGDB|~A3B AGEF|G2GA BGDB|~A3B A2GE|A2GA BGDB|A2dB AGEF|G2GA Bdd2||eg~g2 a2ba|gabg aged|eg~g2 a2ga|bgef ged2|eg~g2 ag~g2|a2bg aged|eg~g2 a2ga|bgea gedB|


Tune 477	Setting 13371

